art/systems/channelf.svg

<?xml version="1.0" encoding="UTF-8"?>
<!DOCTYPE svg  PUBLIC '-//W3C//DTD SVG 1.1//EN'  'http://www.w3.org/Graphics/SVG/1.1/DTD/svg11.dtd'>
<svg width="568.93px" height="116.14px" enable-background="new -1 -1 568.929 116.145" version="1.1" viewBox="-1 -1 568.93 116.14" xml:space="preserve" xmlns="http://www.w3.org/2000/svg">
<path d="m486.1 107.83c-15.816-3e-3 -31.142-2.53-38.518-4.056-3.794-0.779-7.376-2.094-10.218-5.011-2.841-2.914-4.772-7.224-5.811-13.587-1.063-6.538-1.686-19.049-1.69-31.315 0.014-11.655 0.549-22.882 1.974-28.656 0.739-2.974 2.011-5.713 4.156-8.027 2.143-2.316 5.095-4.161 9.043-5.58 7.906-2.83 19.894-4.116 38.806-4.125h26.003c14.182 1e-3 24.474 0.738 32.063 2.287 7.575 1.549 12.552 3.937 15.782 7.418 2.146 2.314 3.419 5.053 4.158 8.027 1.424 5.774 1.957 17.001 1.97 28.656-4e-3 12.266-0.628 24.779-1.688 31.315-1.038 6.363-2.97 10.673-5.811 13.587-2.842 2.917-6.422 4.231-10.216 5.011-7.377 1.525-22.701 4.053-38.519 4.056v-3.764c15.416 3e-3 30.58-2.49 37.754-3.976 3.483-0.725 6.174-1.792 8.286-3.957 2.113-2.165 3.82-5.632 4.791-11.564 0.997-6.081 1.643-18.604 1.637-30.708 0.011-11.47-0.597-22.77-1.856-27.743-0.641-2.546-1.628-4.604-3.269-6.383-1.645-1.776-4.006-3.317-7.555-4.596-7.084-2.564-18.806-3.913-37.529-3.903h-26.003c-14.046-1e-3 -24.148 0.744-31.313 2.211-7.183 1.468-11.321 3.631-13.772 6.288-1.642 1.779-2.627 3.837-3.269 6.383-1.261 4.975-1.872 16.273-1.858 27.743-5e-3 12.103 0.64 24.626 1.64 30.708 0.969 5.933 2.677 9.399 4.789 11.564 2.115 2.165 4.805 3.232 8.286 3.957 7.177 1.485 22.34 3.979 37.756 3.976h21.486v3.764h-21.485z" fill="#363639"/>
<polygon points="474.33 18.199 474.33 97.231 493.02 97.231 493.02 67.249 519.36 67.249 519.36 50.565 493.02 50.565 493.02 34.884 519.11 34.884 519.11 18.074" fill="#BA2025"/>

	
		<path d="m123.56 84.678v-63.218h-18.064v27.841h-21.82v-27.841h-18.817v73.002h18.817v-27.848h22.573v27.849h32.365c7.858-15.046 8.046-15.61 15.054-27.849 5.156 0.067 9.8-0.053 14.293 0v27.849h18.817v-73.003h-28.602c-12.261 20.353-22.174 43.046-34.616 63.218zm42.332-45.592h2.258v9.778h-6.022c1.34-3.176 2.532-5.764 3.764-9.778zm-161.99 14.732-0.188 4.396 0.188 4.636c3.297 23.747 26.623 39.41 53.433 30.107v-22.58c-3.779 2.853-7.903 7.429-15.807 7.526-27.36 0.323-23.619-38.108-0.752-38.379 8.211-0.105 11.343 2.792 16.559 8.272v-23.325c-25.471-10.997-50.587 5.735-53.433 29.347zm233.3 5.268c-10.507-13.789-17.906-24.582-28.594-37.626h-15.806v73.002h18.817v-36.881c11.027 10.793 17.553 26.096 28.594 36.881h15.807v-73.002h-18.817v37.626zm158.79 19.57v-57.196h-18.81v73.002h39.885v-15.806h-21.075zm-65.469 15.806h41.391v-16.558h-21.829v-10.538h21.828v-18.064h-21.828v-10.53h21.828v-17.312h-41.391v73.002zm-24.838-35.376c-11.381-14.293-17.522-23.325-28.602-37.626h-15.799v73.002h18.81v-36.881c10.952 12.803 17.597 23.717 28.602 36.881h15.806v-73.002h-18.817v37.626z" fill="#5A5A5A"/>
	

</svg>

<?xml version="1.0" encoding="utf-8"?>
<!-- Generator: Adobe Illustrator 13.0.0, SVG Export Plug-In . SVG Version: 6.00 Build 14948)  -->
<!DOCTYPE svg PUBLIC "-//W3C//DTD SVG 1.1//EN" "http://www.w3.org/Graphics/SVG/1.1/DTD/svg11.dtd">
<svg version="1.1" id="Layer_1" xmlns:svg="http://www.w3.org/2000/svg"
	 xmlns="http://www.w3.org/2000/svg" xmlns:xlink="http://www.w3.org/1999/xlink" x="0px" y="0px" width="568.929px"
	 height="116.145px" viewBox="-1 -1 568.929 116.145" enable-background="new -1 -1 568.929 116.145" xml:space="preserve">
<path fill="#363639" d="M486.102,107.83c-15.816-0.003-31.142-2.53-38.518-4.056l0,0c-3.794-0.779-7.376-2.094-10.218-5.011l0,0
	c-2.841-2.914-4.772-7.224-5.811-13.587l0,0c-1.063-6.538-1.686-19.049-1.69-31.315l0,0c0.014-11.655,0.549-22.882,1.974-28.656l0,0
	c0.739-2.974,2.011-5.713,4.156-8.027l0,0c2.143-2.316,5.095-4.161,9.043-5.58l0,0c7.906-2.83,19.894-4.116,38.806-4.125l0,0h26.003
	c14.182,0.001,24.474,0.738,32.063,2.287l0,0c7.575,1.549,12.552,3.937,15.782,7.418l0,0c2.146,2.314,3.419,5.053,4.158,8.027l0,0
	c1.424,5.774,1.957,17.001,1.97,28.656l0,0c-0.004,12.266-0.628,24.779-1.688,31.315l0,0c-1.038,6.363-2.97,10.673-5.811,13.587l0,0
	c-2.842,2.917-6.422,4.231-10.216,5.011l0,0c-7.377,1.525-22.701,4.053-38.519,4.056l0,0v-1.881v-1.883
	c15.416,0.003,30.58-2.49,37.754-3.976l0,0c3.483-0.725,6.174-1.792,8.286-3.957l0,0c2.113-2.165,3.82-5.632,4.791-11.564l0,0
	c0.997-6.081,1.643-18.604,1.637-30.708l0,0c0.011-11.47-0.597-22.77-1.856-27.743l0,0c-0.641-2.546-1.628-4.604-3.269-6.383l0,0
	c-1.645-1.776-4.006-3.317-7.555-4.596l0,0c-7.084-2.564-18.806-3.913-37.529-3.903l0,0h-26.003
	c-14.046-0.001-24.148,0.744-31.313,2.211l0,0c-7.183,1.468-11.321,3.631-13.772,6.288l0,0c-1.642,1.779-2.627,3.837-3.269,6.383
	l0,0c-1.261,4.975-1.872,16.273-1.858,27.743l0,0c-0.005,12.103,0.64,24.626,1.64,30.708l0,0c0.969,5.933,2.677,9.399,4.789,11.564
	l0,0c2.115,2.165,4.805,3.232,8.286,3.957l0,0c7.177,1.485,22.34,3.979,37.756,3.976l0,0h21.486v1.883v1.881H486.102L486.102,107.83
	z"/>
<polygon fill="#BA2025" points="474.328,18.199 474.328,97.231 493.019,97.231 493.019,67.249 519.363,67.249 519.363,50.565 
	493.019,50.565 493.019,34.884 519.113,34.884 519.113,18.074 "/>
<g>
	<g>
		<path fill="#5A5A5A" d="M123.563,84.678V21.46h-18.064v27.841h-21.82V21.46H64.862v73.002h18.817V66.614h22.573v27.849h32.365
			c7.858-15.046,8.046-15.61,15.054-27.849c5.156,0.067,9.8-0.053,14.293,0v27.849h18.817V21.46h-28.602
			C145.918,41.813,136.005,64.506,123.563,84.678z M165.895,39.086h2.258v9.778h-6.022C163.471,45.688,164.663,43.1,165.895,39.086z
			 M3.902,53.818l-0.188,4.396l0.188,4.636c3.297,23.747,26.623,39.41,53.433,30.107v-22.58c-3.779,2.853-7.903,7.429-15.807,7.526
			c-27.36,0.323-23.619-38.108-0.752-38.379c8.211-0.105,11.343,2.792,16.559,8.272V24.471C31.864,13.474,6.748,30.206,3.902,53.818
			z M237.203,59.086c-10.507-13.789-17.906-24.582-28.594-37.626h-15.806v73.002h18.817V57.581
			c11.027,10.793,17.553,26.096,28.594,36.881h15.807V21.46h-18.817V59.086z M395.997,78.656V21.46h-18.81v73.002h39.885V78.656
			H395.997z M330.528,94.462h41.391V77.904H350.09V67.366h21.828V49.302H350.09v-10.53h21.828V21.46h-41.391V94.462z M305.69,59.086
			c-11.381-14.293-17.522-23.325-28.602-37.626h-15.799v73.002h18.81V57.581c10.952,12.803,17.597,23.717,28.602,36.881h15.806
			V21.46H305.69V59.086z"/>
	</g>
</g>
</svg>
